ui/StatusQ/src/assets/img/icons/tiny/copy.svg

<svg fill="none" height="16" viewBox="0 0 16 16" width="16" xmlns="http://www.w3.org/2000/svg"><g fill="#000"><path d="m4.16634 7c.27614 0 .5-.22386.5-.5s-.22386-.5-.5-.5h-.16667c-1.47275 0-2.66666 1.19391-2.66666 2.66667v3.33333c0 1.4728 1.19391 2.6667 2.66666 2.6667h3.33334c1.47276 0 2.66666-1.1939 2.66666-2.6667v-.1667c0-.2761-.22385-.5-.5-.5-.27614 0-.5.2239-.5.5v.1667c0 .9205-.74619 1.6667-1.66666 1.6667h-3.33334c-.92047 0-1.66666-.7462-1.66666-1.6667v-3.33333c0-.92048.74619-1.66667 1.66666-1.66667z"/><path clip-rule="evenodd" d="m5.99967 4c0-1.47276 1.19391-2.66666 2.66667-2.66666h3.33336c1.4727 0 2.6666 1.1939 2.6666 2.66666v3.33334c0 1.47276-1.1939 2.66666-2.6666 2.66666h-3.33336c-1.47276 0-2.66667-1.1939-2.66667-2.66666zm2.66667-1.66666h3.33336c.9204 0 1.6666.74619 1.6666 1.66666v3.33334c0 .92047-.7462 1.66666-1.6666 1.66666h-3.33336c-.92047 0-1.66667-.74619-1.66667-1.66666v-3.33334c0-.92047.7462-1.66666 1.66667-1.66666z" fill-rule="evenodd"/></g></svg>

<svg width="16" height="16" viewBox="0 0 16 16" fill="none" xmlns="http://www.w3.org/2000/svg">
<path d="M4.16634 7C4.44248 7 4.66634 6.77614 4.66634 6.5C4.66634 6.22386 4.44248 6 4.16634 6H3.99967C2.52692 6 1.33301 7.19391 1.33301 8.66667V12C1.33301 13.4728 2.52692 14.6667 3.99967 14.6667H7.33301C8.80577 14.6667 9.99967 13.4728 9.99967 12V11.8333C9.99967 11.5572 9.77582 11.3333 9.49967 11.3333C9.22353 11.3333 8.99967 11.5572 8.99967 11.8333V12C8.99967 12.9205 8.25348 13.6667 7.33301 13.6667H3.99967C3.0792 13.6667 2.33301 12.9205 2.33301 12V8.66667C2.33301 7.74619 3.0792 7 3.99967 7H4.16634Z" fill="black"/>
<path fill-rule="evenodd" clip-rule="evenodd" d="M5.99967 4C5.99967 2.52724 7.19358 1.33334 8.66634 1.33334H11.9997C13.4724 1.33334 14.6663 2.52724 14.6663 4V7.33334C14.6663 8.8061 13.4724 10 11.9997 10H8.66634C7.19358 10 5.99967 8.8061 5.99967 7.33334V4ZM8.66634 2.33334H11.9997C12.9201 2.33334 13.6663 3.07953 13.6663 4V7.33334C13.6663 8.25381 12.9201 9 11.9997 9H8.66634C7.74587 9 6.99967 8.25381 6.99967 7.33334V4C6.99967 3.07953 7.74587 2.33334 8.66634 2.33334Z" fill="black"/>
</svg>
